X:1
T:Title
%%score { ( 1 5 ) | ( 2 3 4 ) }
L:1/8
Q:1/4=123
M:6/4
K:Ab
V:1 treble nm="Grand Piano"
V:5 treble 
V:2 bass 
V:3 bass 
V:4 bass 
V:1
 [Ec]2 [DG]2 [DB]2 [CA]2 E2 =D2 | [B,D]6 [DB]6 | [DB]2 [C=A]2 [DB]2 [B,D]2 G2 F2 | [CE]12 | %4
w: J.~Lincoln~Hall * * * * *||||
 [Ec]2 [DG]2 [DB]2 [CA]2 E2 =E2 | F6[K:bass][K:treble] z6 |[M:7/4] E2 d2 c2 [A,=DF]2 [Ec]2 [DB]4 | %7
w: |||
[M:6/4] [CA]12[K:bass] | c2 _c2 =c2 e2 A2 F2 | G6 z6 | [Gd]2 [Gc]2 [Gd]2 [GB]2 [Ge]2 [Gd]2 | c12 | %12
w: |||||
 E2 =D2 E2 [Ec]2 [EB]2 [EA]2 | [Fd]2 [FA]2 [FB]2 [=Ec]6 | %14
w: ||
 [FB]2 [B,F]2 [B,FA]2 [B,EG]2 [EGc]2 [DGB]2[Q:1/4=121][Q:1/4=119][Q:1/4=117][Q:1/4=115][Q:1/4=113][Q:1/4=111][Q:1/4=110][Q:1/4=108][Q:1/4=106][Q:1/4=104][Q:1/4=102][Q:1/4=100][Q:1/4=98][Q:1/4=96][Q:1/4=94] | %15
w: |
 A12 |] %16
w: |
V:2
 z2 E,2 G,2 z2 C2 _C2 | z2 F,2 _G,2 =G,6 | z2 _G,2 =G,2 z2 B,2 _C2 | z2 C,2 E,2 F,2 E,2 C,2 | %4
 z2 E,2 G,2 z2 C2 C2 | [D,D]6 [F,_C=D]6 |[M:7/4] [E,A,C]2[K:treble] F2 E2[K:bass] B,,2 [E,G,]6 | %7
[M:6/4] .A,6 z6 | [A,EA]2 [A,=DA]2 [A,EA]2 [A,CA]2 [A,CE]2[K:bass] [A,CE]2 | %9
 E2- [E,E-]2 [E,E]2 [E,B,]6 | [E,E]2 [E,E]2 [E,E]2 [E,E]2 [E,B,]2 [E,E]2 | .[EA]6 z6 | %12
 [A,C]2 [A,_C]2 [A,=C]2 [A,,A,]2 [B,,G,]2 [C,A,]2 | [D,A,]2 [D,A,]2 [D,F,]2 [C,G,]6 | %14
 [D,F,]2 D,2 D,2 E,2 E,2 E,2 | z2 E2 D2 C6 |] %16
V:3
 z6 A,6 | E,12 | z6 G,6 | A,,12 | z6 A,6 | x12 |[M:7/4] x2[K:treble] x4[K:bass] x8 |[M:6/4] A,,12 | %8
 x10[K:bass] x2 | .[E,B,]6 z6 | x12 | A,12 | x12 | x12 | x12 | A,,12 |] %16
V:4
 A,,12 | x12 | E,12 | x12 | A,,12 | x12 |[M:7/4] x2[K:treble] x4[K:bass] x8 |[M:6/4] x12 | %8
 x10[K:bass] x2 | x12 | x12 | x12 | x12 | x12 | x12 | x12 |] %16
V:5
 x12 | x12 | x12 | x12 | x12 | z2[K:bass] F,2 A,2[K:treble] A6 |[M:7/4] x14 | %7
[M:6/4] z2[K:bass] G,2 F,2 E,6 | x12 | z2 B,2 B,2 [Gd]6 | x12 | z2 G2 F2 E6 | x12 | x12 | x12 | %15
 C2 G2 F2 E6 |] %16

